X:250
T: WER BEKUEMMERT SICH WENN ICH WANDRE, KEINER AUS DER COMPAGNIE
N: Z0249
O: Europa, Mitteleuropa, Deutschland, Baden
R: Soldaten -, Abschieds - Lied
M: 3/4
L: 1/8
K: A
EG | A2ccBB | Acc2
Bc | d3BcA | B2z2
Ac | eeeefe | edd
fed | c2ccec | BAB2
Ac | e2c2BB | A2z2

